X:90
T:The Castle Kelly Reel
M:4/4
K:ADor
L:1/8
A2 cA A2 cA|GBEG G2 EG|A2 cA GAcd|egdB cAAG|
A2 cA A2 cA|GBEF G2 EG|A2 cA GAcd|egdB cA A2 :|
|: age^c d2 ed|=cAGE G3 e|age^c d2 =cd|eaab a2 b2|
age^c d2 ed|=cAGE G2 EG|A2 cA GAcd|egdB cA A2 :|
